X:235
T:score38
L:1/16
Q:1/4=96
M:4/4
I:linebreak $
K:C
 (c8 e4 g4 | B6 cd c4) z4 | (a8 g4 c'4 | g4 f2ef e4) z4 |$!mf!!p! A2Bc defg agfe dcBA | %5
 G2AB cdef gfed cBAG |$ F2GA Bcde fedc BAGF | E2FG ABcd edcB AGFE | D4 z4 z4 z4 |] %9
